_includes/icons/ios-code-file.svg

<svg fill="#666" height="50" viewBox="0 0 50 50" width="50" xmlns="http://www.w3.org/2000/svg"><path d="m29.984375 1.984375c-.046875.003906-.097656.007813-.144531.015625h-22.839844v46h36v-32.832031c.019531-.109375.019531-.21875 0-.324219v-.257812l-.191406-.195313c-.054688-.070312-.121094-.132812-.191406-.1875l-11.824219-11.828125c-.054688-.070312-.117188-.132812-.1875-.1875l-.191406-.1875h-.257813c-.058594-.007812-.113281-.015625-.171875-.015625zm-20.984375 2.015625h20v12h12v30h-32zm22 1.414063 8.585938 8.585937h-8.585938zm-5 16.585937-4 16h2l4-16zm-7.859375 2.484375-3.308594 5.515625 3.308594 5.515625 1.71875-1.03125-2.691406-4.484375 2.691406-4.484375zm13.714844 0-1.714844 1.03125 2.691406 4.484375-2.691406 4.484375 1.71875 1.03125 3.308594-5.515625z"/></svg>

<svg xmlns="http://www.w3.org/2000/svg" viewBox="0 0 50 50" width="50" height="50" fill="#666"><path d="M 29.984375 1.984375 C 29.9375 1.988281 29.886719 1.992188 29.839844 2 L 7 2 L 7 48 L 43 48 L 43 15.167969 C 43.019531 15.058594 43.019531 14.949219 43 14.84375 L 43 14.585938 L 42.808594 14.390625 C 42.753906 14.320313 42.6875 14.257813 42.617188 14.203125 L 30.792969 2.375 C 30.738281 2.304688 30.675781 2.242188 30.605469 2.1875 L 30.414063 2 L 30.15625 2 C 30.097656 1.992188 30.042969 1.984375 29.984375 1.984375 Z M 9 4 L 29 4 L 29 16 L 41 16 L 41 46 L 9 46 Z M 31 5.414063 L 39.585938 14 L 31 14 Z M 26 22 L 22 38 L 24 38 L 28 22 Z M 18.140625 24.484375 L 14.832031 30 L 18.140625 35.515625 L 19.859375 34.484375 L 17.167969 30 L 19.859375 25.515625 Z M 31.855469 24.484375 L 30.140625 25.515625 L 32.832031 30 L 30.140625 34.484375 L 31.859375 35.515625 L 35.167969 30 Z"/></svg>
